MODULE Module1
    
    TASK PERS wobjdata Workobject_2:=[FALSE,TRUE,"",[[0,0,0],[1,0,0,0]],[[-456.044465678,399.898785833,364.9890225],[0.0227243,0.705689,-0.707956,-0.0168803]]];
    !TASK PERS wobjdata Workobject_2:=[FALSE,TRUE,"",[[0,0,0],[1,0,0,0]],[[-555.827633637,420.241618249,370.419359636],[0.0227243,0.705689,-0.707956,-0.0168803]]];
    CONST robtarget Target_Home:=[[415,-1104.142332135,-280.762318552],[0.707106781,0,0,0.707106781],[-1,0,-1,0],[9E+09,9E+09,9E+09,9E+09,9E+09,9E+09]];
    CONST robtarget Target_10:=[[195.515,161.88,-17],[0.707106781,0,0,-0.707106781],[0,0,0,0],[9E+09,9E+09,9E+09,9E+09,9E+09,9E+09]];
    CONST robtarget Target_20:=[[207.228,161.91,13],[0.707106781,0,0,-0.707106781],[0,0,0,0],[9E+09,9E+09,9E+09,9E+09,9E+09,9E+09]];
    CONST robtarget Target_30:=[[207.58,145.181,13],[0.707106781,0,0,-0.707106781],[0,0,0,0],[9E+09,9E+09,9E+09,9E+09,9E+09,9E+09]];
    CONST robtarget Target_40:=[[195.799,144.633,13],[0.707106781,0,0,-0.707106781],[0,0,0,0],[9E+09,9E+09,9E+09,9E+09,9E+09,9E+09]];
    CONST robtarget Target_15:=[[195.515,161.88,13],[0.707106781,0,0,-0.707106781],[0,0,0,0],[9E+09,9E+09,9E+09,9E+09,9E+09,9E+09]];
    CONST robtarget Target_45:=[[195.799,144.633,-17],[0.707106781,0,0,-0.707106781],[0,0,0,0],[9E+09,9E+09,9E+09,9E+09,9E+09,9E+09]];
    CONST robtarget Target_50:=[[206.873,153.256,-17],[0.707106781,0,0,-0.707106781],[0,0,0,0],[9E+09,9E+09,9E+09,9E+09,9E+09,9E+09]];
    CONST robtarget Target_55:=[[206.873,153.256,13],[0.707106781,0,0,-0.707106781],[0,0,0,0],[9E+09,9E+09,9E+09,9E+09,9E+09,9E+09]];
    CONST robtarget Target_60:=[[195.855,153.346,13],[0.707106781,0,0,-0.707106781],[0,0,0,0],[9E+09,9E+09,9E+09,9E+09,9E+09,9E+09]];
    CONST robtarget Target_65:=[[195.855,153.346,-17],[0.707106781,0,0,-0.707106781],[0,0,0,0],[9E+09,9E+09,9E+09,9E+09,9E+09,9E+09]];
    CONST robtarget Target_70:=[[189.124,161.171,-17],[0.707106781,0,0,-0.707106781],[0,0,0,0],[9E+09,9E+09,9E+09,9E+09,9E+09,9E+09]];
    CONST robtarget Target_75:=[[189.124,161.171,13],[0.707106781,0,0,-0.707106781],[0,0,0,0],[9E+09,9E+09,9E+09,9E+09,9E+09,9E+09]];
    CONST robtarget Target_85:=[[189.44,144.388,13],[0.707106781,0,0,-0.707106781],[0,0,0,0],[9E+09,9E+09,9E+09,9E+09,9E+09,9E+09]];
    CONST robtarget Target_95:=[[183.112,144.519,13],[0.707106781,0,0,-0.707106781],[0,0,0,0],[9E+09,9E+09,9E+09,9E+09,9E+09,9E+09]];
    CONST robtarget Target_105:=[[176.193,146.542,13],[0.707106781,0,0,-0.707106781],[0,0,0,0],[9E+09,9E+09,9E+09,9E+09,9E+09,9E+09]];
    CONST robtarget Target_115:=[[173.899,153.537,13],[0.707106781,0,0,-0.707106781],[0,0,0,0],[9E+09,9E+09,9E+09,9E+09,9E+09,9E+09]];
    CONST robtarget Target_125:=[[176.814,159.981,13],[0.707106781,0,0,-0.707106781],[0,0,0,0],[9E+09,9E+09,9E+09,9E+09,9E+09,9E+09]];
    CONST robtarget Target_135:=[[182.271,161.693,13],[0.707106781,0,0,-0.707106781],[0,0,0,0],[9E+09,9E+09,9E+09,9E+09,9E+09,9E+09]];
    CONST robtarget Target_140:=[[189.124,161.171,-17],[0.707106781,0,0,-0.707106781],[0,0,0,0],[9E+09,9E+09,9E+09,9E+09,9E+09,9E+09]];
    CONST robtarget Target_137:=[[189.124,161.171,13],[0.707106781,0,0,-0.707106781],[0,0,0,0],[9E+09,9E+09,9E+09,9E+09,9E+09,9E+09]];
    CONST robtarget Target_145:=[[168.445,161.24,-17],[0.707106781,0,0,-0.707106781],[0,0,0,0],[9E+09,9E+09,9E+09,9E+09,9E+09,9E+09]];
    CONST robtarget Target_150:=[[168.445,161.24,13],[0.707106781,0,0,-0.707106781],[0,0,0,0],[9E+09,9E+09,9E+09,9E+09,9E+09,9E+09]];
    CONST robtarget Target_160:=[[161.722,144.466,13],[0.707106781,0,0,-0.707106781],[0,0,0,0],[9E+09,9E+09,9E+09,9E+09,9E+09,9E+09]];
    CONST robtarget Target_170:=[[154.438,160.647,13],[0.707106781,0,0,-0.707106781],[0,0,0,0],[9E+09,9E+09,9E+09,9E+09,9E+09,9E+09]];
    CONST robtarget Target_180:=[[147.269,145.155,13],[0.707106781,0,0,-0.707106781],[0,0,0,0],[9E+09,9E+09,9E+09,9E+09,9E+09,9E+09]];
    CONST robtarget Target_190:=[[140.007,161.51,13],[0.707106781,0,0,-0.707106781],[0,0,0,0],[9E+09,9E+09,9E+09,9E+09,9E+09,9E+09]];
    CONST robtarget Target_195:=[[140.007,161.51,-17],[0.707106781,0,0,-0.707106781],[0,0,0,0],[9E+09,9E+09,9E+09,9E+09,9E+09,9E+09]];
    CONST robtarget Target_200:=[[136.873,144.547,-17],[0.707106781,0,0,-0.707106781],[0,0,0,0],[9E+09,9E+09,9E+09,9E+09,9E+09,9E+09]];
    CONST robtarget Target_205:=[[136.873,144.547,13],[0.707106781,0,0,-0.707106781],[0,0,0,0],[9E+09,9E+09,9E+09,9E+09,9E+09,9E+09]];
    CONST robtarget Target_215:=[[128.209,161.348,13],[0.707106781,0,0,-0.707106781],[0,0,0,0],[9E+09,9E+09,9E+09,9E+09,9E+09,9E+09]];
    CONST robtarget Target_225:=[[119.296,144.375,13],[0.707106781,0,0,-0.707106781],[0,0,0,0],[9E+09,9E+09,9E+09,9E+09,9E+09,9E+09]];
    CONST robtarget Target_230:=[[119.296,144.375,-17],[0.707106781,0,0,-0.707106781],[0,0,0,0],[9E+09,9E+09,9E+09,9E+09,9E+09,9E+09]];
    CONST robtarget Target_233:=[[134.511,149.734,-17],[0.707106781,0,0,-0.707106781],[0,0,0,0],[9E+09,9E+09,9E+09,9E+09,9E+09,9E+09]];
    CONST robtarget Target_235:=[[134.511,149.734,13],[0.707106781,0,0,-0.707106781],[0,0,0,0],[9E+09,9E+09,9E+09,9E+09,9E+09,9E+09]];
    CONST robtarget Target_245:=[[121.726,149.608,13],[0.707106781,0,0,-0.707106781],[0,0,0,0],[9E+09,9E+09,9E+09,9E+09,9E+09,9E+09]];
    CONST robtarget Target_250:=[[121.726,149.608,-17],[0.707106781,0,0,-0.707106781],[0,0,0,0],[9E+09,9E+09,9E+09,9E+09,9E+09,9E+09]];
    CONST robtarget Target_255:=[[113.12,144.503,-17],[0.707106781,0,0,-0.707106781],[0,0,0,0],[9E+09,9E+09,9E+09,9E+09,9E+09,9E+09]];
    CONST robtarget Target_260:=[[113.12,144.503,13],[0.707106781,0,0,-0.707106781],[0,0,0,0],[9E+09,9E+09,9E+09,9E+09,9E+09,9E+09]];
    CONST robtarget Target_270:=[[112.886,161.589,13],[0.707106781,0,0,-0.707106781],[0,0,0,0],[9E+09,9E+09,9E+09,9E+09,9E+09,9E+09]];
    CONST robtarget Target_280:=[[103.478,161.99,13],[0.707106781,0,0,-0.707106781],[0,0,0,0],[9E+09,9E+09,9E+09,9E+09,9E+09,9E+09]];
    CONST robtarget Target_290:=[[99.786,156.815,13],[0.707106781,0,0,-0.707106781],[0,0,0,0],[9E+09,9E+09,9E+09,9E+09,9E+09,9E+09]];
    CONST robtarget Target_300:=[[104.859,152.031,13],[0.707106781,0,0,-0.707106781],[0,0,0,0],[9E+09,9E+09,9E+09,9E+09,9E+09,9E+09]];
    CONST robtarget Target_310:=[[113.198,152.379,13],[0.707106781,0,0,-0.707106781],[0,0,0,0],[9E+09,9E+09,9E+09,9E+09,9E+09,9E+09]];
    CONST robtarget Target_312:=[[113.198,152.379,-17],[0.707106781,0,0,-0.707106781],[0,0,0,0],[9E+09,9E+09,9E+09,9E+09,9E+09,9E+09]];
    CONST robtarget Target_315:=[[99.246,144.264,-17],[0.707106781,0,0,-0.707106781],[0,0,0,0],[9E+09,9E+09,9E+09,9E+09,9E+09,9E+09]];
    CONST robtarget Target_320:=[[99.246,144.264,13],[0.707106781,0,0,-0.707106781],[0,0,0,0],[9E+09,9E+09,9E+09,9E+09,9E+09,9E+09]];
    CONST robtarget Target_330:=[[104.859,152.031,13],[0.707106781,0,0,-0.707106781],[0,0,0,0],[9E+09,9E+09,9E+09,9E+09,9E+09,9E+09]];
    CONST robtarget Target_340:=[[104.859,152.031,-17],[0.707106781,0,0,-0.707106781],[0,0,0,0],[9E+09,9E+09,9E+09,9E+09,9E+09,9E+09]];
    CONST robtarget Target_350:=[[92.374,161.171,-17],[0.707106781,0,0,-0.707106781],[0,0,0,0],[9E+09,9E+09,9E+09,9E+09,9E+09,9E+09]];
    CONST robtarget Target_360:=[[92.374,161.171,13],[0.707106781,0,0,-0.707106781],[0,0,0,0],[9E+09,9E+09,9E+09,9E+09,9E+09,9E+09]];
    CONST robtarget Target_370:=[[92.69,144.388,13],[0.707106781,0,0,-0.707106781],[0,0,0,0],[9E+09,9E+09,9E+09,9E+09,9E+09,9E+09]];
    CONST robtarget Target_380:=[[86.362,144.519,13],[0.707106781,0,0,-0.707106781],[0,0,0,0],[9E+09,9E+09,9E+09,9E+09,9E+09,9E+09]];
    CONST robtarget Target_390:=[[79.443,146.542,13],[0.707106781,0,0,-0.707106781],[0,0,0,0],[9E+09,9E+09,9E+09,9E+09,9E+09,9E+09]];
    CONST robtarget Target_400:=[[77.149,153.537,13],[0.707106781,0,0,-0.707106781],[0,0,0,0],[9E+09,9E+09,9E+09,9E+09,9E+09,9E+09]];
    CONST robtarget Target_410:=[[80.064,159.981,13],[0.707106781,0,0,-0.707106781],[0,0,0,0],[9E+09,9E+09,9E+09,9E+09,9E+09,9E+09]];
    CONST robtarget Target_420:=[[85.521,161.693,13],[0.707106781,0,0,-0.707106781],[0,0,0,0],[9E+09,9E+09,9E+09,9E+09,9E+09,9E+09]];
    CONST robtarget Target_430:=[[92.374,161.171,13],[0.707106781,0,0,-0.707106781],[0,0,0,0],[9E+09,9E+09,9E+09,9E+09,9E+09,9E+09]];
    CONST robtarget Target_450:=[[92.374,161.171,-17],[0.707106781,0,0,-0.707106781],[0,0,0,0],[9E+09,9E+09,9E+09,9E+09,9E+09,9E+09]];
    CONST robtarget Target_455:=[[174.855,50.481,-47],[0.707106781,0,0,-0.707106781],[0,0,0,0],[9E+09,9E+09,9E+09,9E+09,9E+09,9E+09]];
    CONST robtarget Target_460:=[[174.855,50.481,13],[0.707106781,0,0,-0.707106781],[0,0,0,0],[9E+09,9E+09,9E+09,9E+09,9E+09,9E+09]];
    CONST robtarget Target_470:=[[174.929,35.823,13],[0.707106781,0,0,-0.707106781],[0,0,0,0],[9E+09,9E+09,9E+09,9E+09,9E+09,9E+09]];
    CONST robtarget Target_480:=[[176.841,33.721,13],[0.707106781,0,0,-0.707106781],[0,0,0,0],[9E+09,9E+09,9E+09,9E+09,9E+09,9E+09]];
    CONST robtarget Target_490:=[[180.181,33.468,13],[0.707106781,0,0,-0.707106781],[0,0,0,0],[9E+09,9E+09,9E+09,9E+09,9E+09,9E+09]];
    CONST robtarget Target_495:=[[180.181,33.468,-17],[0.707106781,0,0,-0.707106781],[0,0,0,0],[9E+09,9E+09,9E+09,9E+09,9E+09,9E+09]];
    CONST robtarget Target_500:=[[167.196,50.555,-17],[0.707106781,0,0,-0.707106781],[0,0,0,0],[9E+09,9E+09,9E+09,9E+09,9E+09,9E+09]];
    CONST robtarget Target_505:=[[167.196,50.555,13],[0.707106781,0,0,-0.707106781],[0,0,0,0],[9E+09,9E+09,9E+09,9E+09,9E+09,9E+09]];
    CONST robtarget Target_515:=[[167.365,37.905,13],[0.707106781,0,0,-0.707106781],[0,0,0,0],[9E+09,9E+09,9E+09,9E+09,9E+09,9E+09]];
    CONST robtarget Target_525:=[[164.513,34.304,13],[0.707106781,0,0,-0.707106781],[0,0,0,0],[9E+09,9E+09,9E+09,9E+09,9E+09,9E+09]];
    CONST robtarget Target_535:=[[159.958,33.179,13],[0.707106781,0,0,-0.707106781],[0,0,0,0],[9E+09,9E+09,9E+09,9E+09,9E+09,9E+09]];
    CONST robtarget Target_545:=[[155.608,34.342,13],[0.707106781,0,0,-0.707106781],[0,0,0,0],[9E+09,9E+09,9E+09,9E+09,9E+09,9E+09]];
    CONST robtarget Target_555:=[[152.785,37.445,13],[0.707106781,0,0,-0.707106781],[0,0,0,0],[9E+09,9E+09,9E+09,9E+09,9E+09,9E+09]];
    CONST robtarget Target_565:=[[152.539,50.481,13],[0.707106781,0,0,-0.707106781],[0,0,0,0],[9E+09,9E+09,9E+09,9E+09,9E+09,9E+09]];
    CONST robtarget Target_570:=[[152.539,50.481,-17],[0.707106781,0,0,-0.707106781],[0,0,0,0],[9E+09,9E+09,9E+09,9E+09,9E+09,9E+09]];
    CONST robtarget Target_575:=[[146.567,33.756,-17],[0.707106781,0,0,-0.707106781],[0,0,0,0],[9E+09,9E+09,9E+09,9E+09,9E+09,9E+09]];
    CONST robtarget Target_580:=[[146.567,33.756,13],[0.707106781,0,0,-0.707106781],[0,0,0,0],[9E+09,9E+09,9E+09,9E+09,9E+09,9E+09]];
    CONST robtarget Target_590:=[[137.824,50.493,13],[0.707106781,0,0,-0.707106781],[0,0,0,0],[9E+09,9E+09,9E+09,9E+09,9E+09,9E+09]];
    CONST robtarget Target_600:=[[128.543,33.477,13],[0.707106781,0,0,-0.707106781],[0,0,0,0],[9E+09,9E+09,9E+09,9E+09,9E+09,9E+09]];
    CONST robtarget Target_605:=[[128.543,33.477,-17],[0.707106781,0,0,-0.707106781],[0,0,0,0],[9E+09,9E+09,9E+09,9E+09,9E+09,9E+09]];
    CONST robtarget Target_607:=[[144.005,38.292,-17],[0.707106781,0,0,-0.707106781],[0,0,0,0],[9E+09,9E+09,9E+09,9E+09,9E+09,9E+09]];
    CONST robtarget Target_610:=[[144.005,38.292,13],[0.707106781,0,0,-0.707106781],[0,0,0,0],[9E+09,9E+09,9E+09,9E+09,9E+09,9E+09]];
    CONST robtarget Target_620:=[[131.538,38.336,13],[0.707106781,0,0,-0.707106781],[0,0,0,0],[9E+09,9E+09,9E+09,9E+09,9E+09,9E+09]];
    CONST robtarget Target_625:=[[131.538,38.336,-17],[0.707106781,0,0,-0.707106781],[0,0,0,0],[9E+09,9E+09,9E+09,9E+09,9E+09,9E+09]];
    CONST robtarget Target_630:=[[122.866,33.601,-17],[0.707106781,0,0,-0.707106781],[0,0,0,0],[9E+09,9E+09,9E+09,9E+09,9E+09,9E+09]];
    CONST robtarget Target_635:=[[122.866,33.601,13],[0.707106781,0,0,-0.707106781],[0,0,0,0],[9E+09,9E+09,9E+09,9E+09,9E+09,9E+09]];
    CONST robtarget Target_645:=[[122.781,50.046,13],[0.707106781,0,0,-0.707106781],[0,0,0,0],[9E+09,9E+09,9E+09,9E+09,9E+09,9E+09]];
    CONST robtarget Target_655:=[[108.238,34.318,13],[0.707106781,0,0,-0.707106781],[0,0,0,0],[9E+09,9E+09,9E+09,9E+09,9E+09,9E+09]];
    CONST robtarget Target_665:=[[108.089,50.527,13],[0.707106781,0,0,-0.707106781],[0,0,0,0],[9E+09,9E+09,9E+09,9E+09,9E+09,9E+09]];
    CONST robtarget Target_670:=[[108.089,50.527,-17],[0.707106781,0,0,-0.707106781],[0,0,0,0],[9E+09,9E+09,9E+09,9E+09,9E+09,9E+09]];
    CONST robtarget Target_675:=[[144.425,100.779,-17],[0.707106781,0,0,-0.707106781],[0,0,0,0],[9E+09,9E+09,9E+09,9E+09,9E+09,9E+09]];
    CONST robtarget Target_680:=[[144.425,100.779,13],[0.707106781,0,0,-0.707106781],[0,0,0,0],[9E+09,9E+09,9E+09,9E+09,9E+09,9E+09]];
    CONST robtarget Target_690:=[[136.302,110.544,13],[0.707106781,0,0,-0.707106781],[0,0,0,0],[9E+09,9E+09,9E+09,9E+09,9E+09,9E+09]];
    CONST robtarget Target_700:=[[120.135,114.118,13],[0.707106781,0,0,-0.707106781],[0,0,0,0],[9E+09,9E+09,9E+09,9E+09,9E+09,9E+09]];
    CONST robtarget Target_710:=[[114.933,96.885,13],[0.707106781,0,0,-0.707106781],[0,0,0,0],[9E+09,9E+09,9E+09,9E+09,9E+09,9E+09]];
    CONST robtarget Target_720:=[[128.231,90.318,13],[0.707106781,0,0,-0.707106781],[0,0,0,0],[9E+09,9E+09,9E+09,9E+09,9E+09,9E+09]];
    CONST robtarget Target_723:=[[137.061,93.288,13],[0.707106781,0,0,-0.707106781],[-1,-1,1,0],[9E+09,9E+09,9E+09,9E+09,9E+09,9E+09]];
    CONST robtarget Target_725:=[[144.425,100.779,13],[0.707106781,0,0,-0.707106781],[0,0,0,0],[9E+09,9E+09,9E+09,9E+09,9E+09,9E+09]];
    CONST robtarget Target_727:=[[148.495,107.671,13],[0.707106781,0,0,-0.707106781],[0,0,0,0],[9E+09,9E+09,9E+09,9E+09,9E+09,9E+09]];
    CONST robtarget Target_740:=[[168.006,114.545,13],[0.707106781,0,0,-0.707106781],[0,0,0,0],[9E+09,9E+09,9E+09,9E+09,9E+09,9E+09]];
    CONST robtarget Target_750:=[[172.702,97.457,13],[0.707106781,0,0,-0.707106781],[0,0,0,0],[9E+09,9E+09,9E+09,9E+09,9E+09,9E+09]];
    CONST robtarget Target_760:=[[159.567,90.376,13],[0.707106781,0,0,-0.707106781],[0,0,0,0],[9E+09,9E+09,9E+09,9E+09,9E+09,9E+09]];
    CONST robtarget Target_765:=[[152.449,92.104,13],[0.707106781,0,0,-0.707106781],[0,0,0,0],[9E+09,9E+09,9E+09,9E+09,9E+09,9E+09]];
    CONST robtarget Target_770:=[[144.425,100.779,13],[0.707106781,0,0,-0.707106781],[0,0,0,0],[9E+09,9E+09,9E+09,9E+09,9E+09,9E+09]];
    CONST robtarget Target_780:=[[139.061,93.288,13],[0.707106781,0,0,-0.707106781],[-1,-1,1,0],[9E+09,9E+09,9E+09,9E+09,9E+09,9E+09]];
    CONST robtarget Target_785:=[[144.425,85.779,13],[0.707106781,0,0,-0.707106781],[0,0,0,0],[9E+09,9E+09,9E+09,9E+09,9E+09,9E+09]];
    CONST robtarget Target_790:=[[149.061,93.288,13],[0.707106781,0,0,-0.707106781],[-1,-1,1,0],[9E+09,9E+09,9E+09,9E+09,9E+09,9E+09]];
    CONST robtarget Target_800:=[[144.425,100.779,13],[0.707106781,0,0,-0.707106781],[0,0,0,0],[9E+09,9E+09,9E+09,9E+09,9E+09,9E+09]];
    CONST robtarget Target_800_2:=[[-155.575,100.779,13],[0.707106781,0,0,-0.707106781],[0,0,0,0],[9E+09,9E+09,9E+09,9E+09,9E+09,9E+09]];
    CONST robtarget Target_810:=[[-155.575,200.779,-30],[0.707106781,0,0,-0.707106781],[-1,-1,1,0],[9E+09,9E+09,9E+09,9E+09,9E+09,9E+09]];
    CONST robtarget Target_815:=[[170.934,94.53,-17],[0.707106781,0,0,-0.707106781],[0,0,0,0],[9E+09,9E+09,9E+09,9E+09,9E+09,9E+09]];
    CONST robtarget Target_820:=[[170.934,94.53,13],[0.707106781,0,0,-0.707106781],[0,0,0,0],[9E+09,9E+09,9E+09,9E+09,9E+09,9E+09]];
    CONST robtarget Target_830:=[[172.097,82.685,13],[0.707106781,0,0,-0.707106781],[0,0,0,0],[9E+09,9E+09,9E+09,9E+09,9E+09,9E+09]];
    CONST robtarget Target_840:=[[164.025,70.659,13],[0.707106781,0,0,-0.707106781],[0,0,0,0],[9E+09,9E+09,9E+09,9E+09,9E+09,9E+09]];
    CONST robtarget Target_850:=[[144.425,63.779,13],[0.707106781,0,0,-0.707106781],[0,0,0,0],[9E+09,9E+09,9E+09,9E+09,9E+09,9E+09]];
    CONST robtarget Target_860:=[[122.025,70.659,13],[0.707106781,0,0,-0.707106781],[0,0,0,0],[9E+09,9E+09,9E+09,9E+09,9E+09,9E+09]];
    CONST robtarget Target_870:=[[115.097,82.685,13],[0.707106781,0,0,-0.707106781],[0,0,0,0],[9E+09,9E+09,9E+09,9E+09,9E+09,9E+09]];
    CONST robtarget Target_880:=[[115.934,94.53,13],[0.707106781,0,0,-0.707106781],[0,0,0,0],[9E+09,9E+09,9E+09,9E+09,9E+09,9E+09]];
    CONST robtarget Target_890:=[[115.934,94.53,-17],[0.707106781,0,0,-0.707106781],[0,0,0,0],[9E+09,9E+09,9E+09,9E+09,9E+09,9E+09]];
    CONST robtarget Target_895:=[[120.962,114.326,-17],[0.707106781,0,0,-0.707106781],[0,0,0,0],[9E+09,9E+09,9E+09,9E+09,9E+09,9E+09]];
    CONST robtarget Target_900:=[[120.962,114.326,13],[0.707106781,0,0,-0.707106781],[0,0,0,0],[9E+09,9E+09,9E+09,9E+09,9E+09,9E+09]];
    CONST robtarget Target_910:=[[117.136,120.744,13],[0.707106781,0,0,-0.707106781],[0,0,0,0],[9E+09,9E+09,9E+09,9E+09,9E+09,9E+09]];
    CONST robtarget Target_920:=[[118.942,129.042,13],[0.707106781,0,0,-0.707106781],[0,0,0,0],[9E+09,9E+09,9E+09,9E+09,9E+09,9E+09]];
    CONST robtarget Target_930:=[[131.522,122.407,13],[0.707106781,0,0,-0.707106781],[0,0,0,0],[9E+09,9E+09,9E+09,9E+09,9E+09,9E+09]];
    CONST robtarget Target_940:=[[144.148,126.028,13],[0.707106781,0,0,-0.707106781],[0,0,0,0],[9E+09,9E+09,9E+09,9E+09,9E+09,9E+09]];
    CONST robtarget Target_950:=[[156.522,122.407,13],[0.707106781,0,0,-0.707106781],[0,0,0,0],[9E+09,9E+09,9E+09,9E+09,9E+09,9E+09]];
    CONST robtarget Target_960:=[[167.942,129.042,13],[0.707106781,0,0,-0.707106781],[0,0,0,0],[9E+09,9E+09,9E+09,9E+09,9E+09,9E+09]];
    CONST robtarget Target_970:=[[170.136,120.744,13],[0.707106781,0,0,-0.707106781],[0,0,0,0],[9E+09,9E+09,9E+09,9E+09,9E+09,9E+09]];
    CONST robtarget Target_980:=[[167.962,114.326,13],[0.707106781,0,0,-0.707106781],[0,0,0,0],[9E+09,9E+09,9E+09,9E+09,9E+09,9E+09]];
    CONST robtarget Target_990:=[[167.962,114.326,-17],[0.707106781,0,0,-0.707106781],[0,0,0,0],[9E+09,9E+09,9E+09,9E+09,9E+09,9E+09]];
    CONST robtarget Target_770_2:=[[-155.575,100.779,13],[0.707106781,0,0,-0.707106781],[0,0,0,0],[9E+09,9E+09,9E+09,9E+09,9E+09,9E+09]];
    CONST robtarget Target_775:=[[144.425,100.779,-17],[0.707106781,0,0,-0.707106781],[1,0,-1,0],[9E+09,9E+09,9E+09,9E+09,9E+09,9E+09]];
    CONST robtarget Target_775_2:=[[144.425,100.779,-17],[0.707106781,0,0,-0.707106781],[1,0,-1,0],[9E+09,9E+09,9E+09,9E+09,9E+09,9E+09]];
    CONST robtarget Target_775_2_2:=[[144.425,100.779,-17],[0.707106781,0,0,-0.707106781],[1,0,-1,0],[9E+09,9E+09,9E+09,9E+09,9E+09,9E+09]];
    CONST robtarget Target_1000:=[[341.080457911,109.187486872,-205.963530138],[0.757421454,0.045354204,0.033577746,-0.650483106],[1,-1,0,0],[9E+09,9E+09,9E+09,9E+09,9E+09,9E+09]];
    CONST robtarget Extrac:=[[738.074370094,-974.319408409,-442.636745175],[0.421192163,0.424456599,-0.279511712,0.751203674],[-1,-1,0,1],[9E+09,9E+09,9E+09,9E+09,9E+09,9E+09]];
    CONST robtarget Target_10_2:=[[-104.485,161.88,-17],[0.707106781,0,0,-0.707106781],[0,0,0,0],[9E+09,9E+09,9E+09,9E+09,9E+09,9E+09]];
    CONST robtarget Target_15_2:=[[-104.485,161.88,13],[0.707106781,0,0,-0.707106781],[0,0,0,0],[9E+09,9E+09,9E+09,9E+09,9E+09,9E+09]];
    CONST robtarget Target_20_2:=[[-92.772,161.91,13],[0.707106781,0,0,-0.707106781],[0,0,0,0],[9E+09,9E+09,9E+09,9E+09,9E+09,9E+09]];
    CONST robtarget Target_30_2:=[[-92.42,145.181,13],[0.707106781,0,0,-0.707106781],[0,0,0,0],[9E+09,9E+09,9E+09,9E+09,9E+09,9E+09]];
    CONST robtarget Target_40_2:=[[-104.201,144.633,13],[0.707106781,0,0,-0.707106781],[0,0,0,0],[9E+09,9E+09,9E+09,9E+09,9E+09,9E+09]];
    CONST robtarget Target_45_2:=[[-104.201,144.633,-17],[0.707106781,0,0,-0.707106781],[0,0,0,0],[9E+09,9E+09,9E+09,9E+09,9E+09,9E+09]];
    CONST robtarget Target_50_2:=[[-93.127,153.256,-17],[0.707106781,0,0,-0.707106781],[0,0,0,0],[9E+09,9E+09,9E+09,9E+09,9E+09,9E+09]];
    CONST robtarget Target_55_2:=[[-93.127,153.256,13],[0.707106781,0,0,-0.707106781],[0,0,0,0],[9E+09,9E+09,9E+09,9E+09,9E+09,9E+09]];
    CONST robtarget Target_60_2:=[[-104.145,153.346,13],[0.707106781,0,0,-0.707106781],[0,0,0,0],[9E+09,9E+09,9E+09,9E+09,9E+09,9E+09]];
    CONST robtarget Target_65_2:=[[-104.145,153.346,-17],[0.707106781,0,0,-0.707106781],[0,0,0,0],[9E+09,9E+09,9E+09,9E+09,9E+09,9E+09]];
    CONST robtarget Target_70_2:=[[-110.876,161.171,-17],[0.707106781,0,0,-0.707106781],[0,0,0,0],[9E+09,9E+09,9E+09,9E+09,9E+09,9E+09]];
    CONST robtarget Target_75_2:=[[-110.876,161.171,13],[0.707106781,0,0,-0.707106781],[0,0,0,0],[9E+09,9E+09,9E+09,9E+09,9E+09,9E+09]];
    CONST robtarget Target_85_2:=[[-110.56,144.388,13],[0.707106781,0,0,-0.707106781],[0,0,0,0],[9E+09,9E+09,9E+09,9E+09,9E+09,9E+09]];
    CONST robtarget Target_95_2:=[[-116.888,144.519,13],[0.707106781,0,0,-0.707106781],[0,0,0,0],[9E+09,9E+09,9E+09,9E+09,9E+09,9E+09]];
    CONST robtarget Target_105_2:=[[-123.807,146.542,13],[0.707106781,0,0,-0.707106781],[0,0,0,0],[9E+09,9E+09,9E+09,9E+09,9E+09,9E+09]];
    CONST robtarget Target_115_2:=[[-126.101,153.537,13],[0.707106781,0,0,-0.707106781],[0,0,0,0],[9E+09,9E+09,9E+09,9E+09,9E+09,9E+09]];
    CONST robtarget Target_125_2:=[[-123.186,159.981,13],[0.707106781,0,0,-0.707106781],[0,0,0,0],[9E+09,9E+09,9E+09,9E+09,9E+09,9E+09]];
    CONST robtarget Target_135_2:=[[-117.729,161.693,13],[0.707106781,0,0,-0.707106781],[0,0,0,0],[9E+09,9E+09,9E+09,9E+09,9E+09,9E+09]];
    CONST robtarget Target_137_2:=[[-110.876,161.171,13],[0.707106781,0,0,-0.707106781],[0,0,0,0],[9E+09,9E+09,9E+09,9E+09,9E+09,9E+09]];
    CONST robtarget Target_140_2:=[[-110.876,161.171,-17],[0.707106781,0,0,-0.707106781],[0,0,0,0],[9E+09,9E+09,9E+09,9E+09,9E+09,9E+09]];
    CONST robtarget Target_145_2:=[[-131.555,161.24,-17],[0.707106781,0,0,-0.707106781],[0,0,0,0],[9E+09,9E+09,9E+09,9E+09,9E+09,9E+09]];
    CONST robtarget Target_150_2:=[[-131.555,161.24,13],[0.707106781,0,0,-0.707106781],[0,0,0,0],[9E+09,9E+09,9E+09,9E+09,9E+09,9E+09]];
    CONST robtarget Target_160_2:=[[-138.278,144.466,13],[0.707106781,0,0,-0.707106781],[0,0,0,0],[9E+09,9E+09,9E+09,9E+09,9E+09,9E+09]];
    CONST robtarget Target_170_2:=[[-145.562,160.647,13],[0.707106781,0,0,-0.707106781],[0,0,0,0],[9E+09,9E+09,9E+09,9E+09,9E+09,9E+09]];
    CONST robtarget Target_180_2:=[[-152.731,145.155,13],[0.707106781,0,0,-0.707106781],[0,0,0,0],[9E+09,9E+09,9E+09,9E+09,9E+09,9E+09]];
    CONST robtarget Target_190_2:=[[-159.993,161.51,13],[0.707106781,0,0,-0.707106781],[0,0,0,0],[9E+09,9E+09,9E+09,9E+09,9E+09,9E+09]];
    CONST robtarget Target_195_2:=[[-159.993,161.51,-17],[0.707106781,0,0,-0.707106781],[0,0,0,0],[9E+09,9E+09,9E+09,9E+09,9E+09,9E+09]];
    CONST robtarget Target_200_2:=[[-163.127,144.547,-17],[0.707106781,0,0,-0.707106781],[0,0,0,0],[9E+09,9E+09,9E+09,9E+09,9E+09,9E+09]];
    CONST robtarget Target_205_2:=[[-163.127,144.547,13],[0.707106781,0,0,-0.707106781],[0,0,0,0],[9E+09,9E+09,9E+09,9E+09,9E+09,9E+09]];
    CONST robtarget Target_215_2:=[[-171.791,161.348,13],[0.707106781,0,0,-0.707106781],[0,0,0,0],[9E+09,9E+09,9E+09,9E+09,9E+09,9E+09]];
    CONST robtarget Target_225_2:=[[-180.704,144.375,13],[0.707106781,0,0,-0.707106781],[0,0,0,0],[9E+09,9E+09,9E+09,9E+09,9E+09,9E+09]];
    CONST robtarget Target_230_2:=[[-180.704,144.375,-17],[0.707106781,0,0,-0.707106781],[0,0,0,0],[9E+09,9E+09,9E+09,9E+09,9E+09,9E+09]];
    CONST robtarget Target_233_2:=[[-165.489,149.734,-17],[0.707106781,0,0,-0.707106781],[0,0,0,0],[9E+09,9E+09,9E+09,9E+09,9E+09,9E+09]];
    CONST robtarget Target_235_2:=[[-165.489,149.734,13],[0.707106781,0,0,-0.707106781],[0,0,0,0],[9E+09,9E+09,9E+09,9E+09,9E+09,9E+09]];
    CONST robtarget Target_245_2:=[[-178.274,149.608,13],[0.707106781,0,0,-0.707106781],[0,0,0,0],[9E+09,9E+09,9E+09,9E+09,9E+09,9E+09]];
    CONST robtarget Target_250_2:=[[-178.274,149.608,-17],[0.707106781,0,0,-0.707106781],[0,0,0,0],[9E+09,9E+09,9E+09,9E+09,9E+09,9E+09]];
    CONST robtarget Target_255_2:=[[-186.88,144.503,-17],[0.707106781,0,0,-0.707106781],[0,0,0,0],[9E+09,9E+09,9E+09,9E+09,9E+09,9E+09]];
    CONST robtarget Target_260_2:=[[-186.88,144.503,13],[0.707106781,0,0,-0.707106781],[0,0,0,0],[9E+09,9E+09,9E+09,9E+09,9E+09,9E+09]];
    CONST robtarget Target_270_2:=[[-187.114,161.589,13],[0.707106781,0,0,-0.707106781],[0,0,0,0],[9E+09,9E+09,9E+09,9E+09,9E+09,9E+09]];
    CONST robtarget Target_280_2:=[[-196.522,161.99,13],[0.707106781,0,0,-0.707106781],[0,0,0,0],[9E+09,9E+09,9E+09,9E+09,9E+09,9E+09]];
    CONST robtarget Target_290_2:=[[-200.214,156.815,13],[0.707106781,0,0,-0.707106781],[0,0,0,0],[9E+09,9E+09,9E+09,9E+09,9E+09,9E+09]];
    CONST robtarget Target_300_2:=[[-195.141,152.031,13],[0.707106781,0,0,-0.707106781],[0,0,0,0],[9E+09,9E+09,9E+09,9E+09,9E+09,9E+09]];
    CONST robtarget Target_310_2:=[[-186.802,152.379,13],[0.707106781,0,0,-0.707106781],[0,0,0,0],[9E+09,9E+09,9E+09,9E+09,9E+09,9E+09]];
    CONST robtarget Target_312_2:=[[-186.802,152.379,-17],[0.707106781,0,0,-0.707106781],[0,0,0,0],[9E+09,9E+09,9E+09,9E+09,9E+09,9E+09]];
    CONST robtarget Target_315_2:=[[-200.754,144.264,-17],[0.707106781,0,0,-0.707106781],[0,0,0,0],[9E+09,9E+09,9E+09,9E+09,9E+09,9E+09]];
    CONST robtarget Target_320_2:=[[-200.754,144.264,13],[0.707106781,0,0,-0.707106781],[0,0,0,0],[9E+09,9E+09,9E+09,9E+09,9E+09,9E+09]];
    CONST robtarget Target_330_2:=[[-195.141,152.031,13],[0.707106781,0,0,-0.707106781],[0,0,0,0],[9E+09,9E+09,9E+09,9E+09,9E+09,9E+09]];
    CONST robtarget Target_340_2:=[[-195.141,152.031,-17],[0.707106781,0,0,-0.707106781],[0,0,0,0],[9E+09,9E+09,9E+09,9E+09,9E+09,9E+09]];
    CONST robtarget Target_350_2:=[[-207.626,161.171,-17],[0.707106781,0,0,-0.707106781],[0,0,0,0],[9E+09,9E+09,9E+09,9E+09,9E+09,9E+09]];
    CONST robtarget Target_360_2:=[[-207.626,161.171,13],[0.707106781,0,0,-0.707106781],[0,0,0,0],[9E+09,9E+09,9E+09,9E+09,9E+09,9E+09]];
    CONST robtarget Target_370_2:=[[-207.31,144.388,13],[0.707106781,0,0,-0.707106781],[0,0,0,0],[9E+09,9E+09,9E+09,9E+09,9E+09,9E+09]];
    CONST robtarget Target_380_2:=[[-213.638,144.519,13],[0.707106781,0,0,-0.707106781],[0,0,0,0],[9E+09,9E+09,9E+09,9E+09,9E+09,9E+09]];
    CONST robtarget Target_390_2:=[[-220.557,146.542,13],[0.707106781,0,0,-0.707106781],[0,0,0,0],[9E+09,9E+09,9E+09,9E+09,9E+09,9E+09]];
    CONST robtarget Target_400_2:=[[-222.851,153.537,13],[0.707106781,0,0,-0.707106781],[0,0,0,0],[9E+09,9E+09,9E+09,9E+09,9E+09,9E+09]];
    CONST robtarget Target_410_2:=[[-219.936,159.981,13],[0.707106781,0,0,-0.707106781],[0,0,0,0],[9E+09,9E+09,9E+09,9E+09,9E+09,9E+09]];
    CONST robtarget Target_420_2:=[[-214.479,161.693,13],[0.707106781,0,0,-0.707106781],[0,0,0,0],[9E+09,9E+09,9E+09,9E+09,9E+09,9E+09]];
    CONST robtarget Target_430_2:=[[-207.626,161.171,13],[0.707106781,0,0,-0.707106781],[0,0,0,0],[9E+09,9E+09,9E+09,9E+09,9E+09,9E+09]];
    CONST robtarget Target_450_2:=[[-207.626,161.171,-17],[0.707106781,0,0,-0.707106781],[0,0,0,0],[9E+09,9E+09,9E+09,9E+09,9E+09,9E+09]];
    CONST robtarget Target_455_2:=[[-125.145,50.481,-47],[0.707106781,0,0,-0.707106781],[0,0,0,0],[9E+09,9E+09,9E+09,9E+09,9E+09,9E+09]];
    CONST robtarget Target_460_2:=[[-125.145,50.481,13],[0.707106781,0,0,-0.707106781],[0,0,0,0],[9E+09,9E+09,9E+09,9E+09,9E+09,9E+09]];
    CONST robtarget Target_470_2:=[[-125.071,35.823,13],[0.707106781,0,0,-0.707106781],[0,0,0,0],[9E+09,9E+09,9E+09,9E+09,9E+09,9E+09]];
    CONST robtarget Target_480_2:=[[-123.159,33.721,13],[0.707106781,0,0,-0.707106781],[0,0,0,0],[9E+09,9E+09,9E+09,9E+09,9E+09,9E+09]];
    CONST robtarget Target_490_2:=[[-119.819,33.468,13],[0.707106781,0,0,-0.707106781],[0,0,0,0],[9E+09,9E+09,9E+09,9E+09,9E+09,9E+09]];
    CONST robtarget Target_495_2:=[[-119.819,33.468,-17],[0.707106781,0,0,-0.707106781],[0,0,0,0],[9E+09,9E+09,9E+09,9E+09,9E+09,9E+09]];
    CONST robtarget Target_500_2:=[[-132.804,50.555,-17],[0.707106781,0,0,-0.707106781],[0,0,0,0],[9E+09,9E+09,9E+09,9E+09,9E+09,9E+09]];
    CONST robtarget Target_505_2:=[[-132.804,50.555,13],[0.707106781,0,0,-0.707106781],[0,0,0,0],[9E+09,9E+09,9E+09,9E+09,9E+09,9E+09]];
    CONST robtarget Target_515_2:=[[-132.635,37.905,13],[0.707106781,0,0,-0.707106781],[0,0,0,0],[9E+09,9E+09,9E+09,9E+09,9E+09,9E+09]];
    CONST robtarget Target_525_2:=[[-135.487,34.304,13],[0.707106781,0,0,-0.707106781],[0,0,0,0],[9E+09,9E+09,9E+09,9E+09,9E+09,9E+09]];
    CONST robtarget Target_535_2:=[[-140.042,33.179,13],[0.707106781,0,0,-0.707106781],[0,0,0,0],[9E+09,9E+09,9E+09,9E+09,9E+09,9E+09]];
    CONST robtarget Target_545_2:=[[-144.392,34.342,13],[0.707106781,0,0,-0.707106781],[0,0,0,0],[9E+09,9E+09,9E+09,9E+09,9E+09,9E+09]];
    CONST robtarget Target_555_2:=[[-147.215,37.445,13],[0.707106781,0,0,-0.707106781],[0,0,0,0],[9E+09,9E+09,9E+09,9E+09,9E+09,9E+09]];
    CONST robtarget Target_565_2:=[[-147.461,50.481,13],[0.707106781,0,0,-0.707106781],[0,0,0,0],[9E+09,9E+09,9E+09,9E+09,9E+09,9E+09]];
    CONST robtarget Target_570_2:=[[-147.461,50.481,-17],[0.707106781,0,0,-0.707106781],[0,0,0,0],[9E+09,9E+09,9E+09,9E+09,9E+09,9E+09]];
    CONST robtarget Target_575_2:=[[-153.433,33.756,-17],[0.707106781,0,0,-0.707106781],[0,0,0,0],[9E+09,9E+09,9E+09,9E+09,9E+09,9E+09]];
    CONST robtarget Target_580_2:=[[-153.433,33.756,13],[0.707106781,0,0,-0.707106781],[0,0,0,0],[9E+09,9E+09,9E+09,9E+09,9E+09,9E+09]];
    CONST robtarget Target_590_2:=[[-162.176,50.493,13],[0.707106781,0,0,-0.707106781],[0,0,0,0],[9E+09,9E+09,9E+09,9E+09,9E+09,9E+09]];
    CONST robtarget Target_600_2:=[[-171.457,33.477,13],[0.707106781,0,0,-0.707106781],[0,0,0,0],[9E+09,9E+09,9E+09,9E+09,9E+09,9E+09]];
    CONST robtarget Target_605_2:=[[-171.457,33.477,-17],[0.707106781,0,0,-0.707106781],[0,0,0,0],[9E+09,9E+09,9E+09,9E+09,9E+09,9E+09]];
    CONST robtarget Target_607_2:=[[-155.995,38.292,-17],[0.707106781,0,0,-0.707106781],[0,0,0,0],[9E+09,9E+09,9E+09,9E+09,9E+09,9E+09]];
    CONST robtarget Target_610_2:=[[-155.995,38.292,13],[0.707106781,0,0,-0.707106781],[0,0,0,0],[9E+09,9E+09,9E+09,9E+09,9E+09,9E+09]];
    CONST robtarget Target_620_2:=[[-168.462,38.336,13],[0.707106781,0,0,-0.707106781],[0,0,0,0],[9E+09,9E+09,9E+09,9E+09,9E+09,9E+09]];
    CONST robtarget Target_625_2:=[[-168.462,38.336,-17],[0.707106781,0,0,-0.707106781],[0,0,0,0],[9E+09,9E+09,9E+09,9E+09,9E+09,9E+09]];
    CONST robtarget Target_630_2:=[[-177.134,33.601,-17],[0.707106781,0,0,-0.707106781],[0,0,0,0],[9E+09,9E+09,9E+09,9E+09,9E+09,9E+09]];
    CONST robtarget Target_635_2:=[[-177.134,33.601,13],[0.707106781,0,0,-0.707106781],[0,0,0,0],[9E+09,9E+09,9E+09,9E+09,9E+09,9E+09]];
    CONST robtarget Target_645_2:=[[-177.219,50.046,13],[0.707106781,0,0,-0.707106781],[0,0,0,0],[9E+09,9E+09,9E+09,9E+09,9E+09,9E+09]];
    CONST robtarget Target_655_2:=[[-191.762,34.318,13],[0.707106781,0,0,-0.707106781],[0,0,0,0],[9E+09,9E+09,9E+09,9E+09,9E+09,9E+09]];
    CONST robtarget Target_665_2:=[[-191.911,50.527,13],[0.707106781,0,0,-0.707106781],[0,0,0,0],[9E+09,9E+09,9E+09,9E+09,9E+09,9E+09]];
    CONST robtarget Target_670_2:=[[-191.911,50.527,-17],[0.707106781,0,0,-0.707106781],[0,0,0,0],[9E+09,9E+09,9E+09,9E+09,9E+09,9E+09]];
    CONST robtarget Target_675_2:=[[-155.575,100.779,-17],[0.707106781,0,0,-0.707106781],[0,0,0,0],[9E+09,9E+09,9E+09,9E+09,9E+09,9E+09]];
    CONST robtarget Target_680_2:=[[-155.575,100.779,13],[0.707106781,0,0,-0.707106781],[0,0,0,0],[9E+09,9E+09,9E+09,9E+09,9E+09,9E+09]];
    CONST robtarget Target_690_2:=[[-163.698,110.544,13],[0.707106781,0,0,-0.707106781],[0,0,0,0],[9E+09,9E+09,9E+09,9E+09,9E+09,9E+09]];
    CONST robtarget Target_700_2:=[[-179.865,114.118,13],[0.707106781,0,0,-0.707106781],[0,0,0,0],[9E+09,9E+09,9E+09,9E+09,9E+09,9E+09]];
    CONST robtarget Target_710_2:=[[-185.067,96.885,13],[0.707106781,0,0,-0.707106781],[0,0,0,0],[9E+09,9E+09,9E+09,9E+09,9E+09,9E+09]];
    CONST robtarget Target_720_2:=[[-171.769,90.318,13],[0.707106781,0,0,-0.707106781],[0,0,0,0],[9E+09,9E+09,9E+09,9E+09,9E+09,9E+09]];
    CONST robtarget Target_723_2:=[[-162.939,93.288,13],[0.707106781,0,0,-0.707106781],[-1,-1,1,0],[9E+09,9E+09,9E+09,9E+09,9E+09,9E+09]];
    CONST robtarget Target_725_2:=[[-155.575,100.779,13],[0.707106781,0,0,-0.707106781],[0,0,0,0],[9E+09,9E+09,9E+09,9E+09,9E+09,9E+09]];
    CONST robtarget Target_727_2:=[[-151.505,107.671,13],[0.707106781,0,0,-0.707106781],[0,0,0,0],[9E+09,9E+09,9E+09,9E+09,9E+09,9E+09]];
    CONST robtarget Target_740_2:=[[-131.994,114.545,13],[0.707106781,0,0,-0.707106781],[0,0,0,0],[9E+09,9E+09,9E+09,9E+09,9E+09,9E+09]];
    CONST robtarget Target_750_2:=[[-127.298,97.457,13],[0.707106781,0,0,-0.707106781],[0,0,0,0],[9E+09,9E+09,9E+09,9E+09,9E+09,9E+09]];
    CONST robtarget Target_760_2:=[[-140.433,90.376,13],[0.707106781,0,0,-0.707106781],[0,0,0,0],[9E+09,9E+09,9E+09,9E+09,9E+09,9E+09]];
    CONST robtarget Target_765_2:=[[-147.551,92.104,13],[0.707106781,0,0,-0.707106781],[0,0,0,0],[9E+09,9E+09,9E+09,9E+09,9E+09,9E+09]];
    CONST robtarget Target_775_2_2_2:=[[-155.575,100.779,-17],[0.707106781,0,0,-0.707106781],[1,0,-1,0],[9E+09,9E+09,9E+09,9E+09,9E+09,9E+09]];
    CONST robtarget Target_775_2_3:=[[-155.575,-99.221,-17],[0.707106781,0,0,-0.707106781],[1,0,-1,0],[9E+09,9E+09,9E+09,9E+09,9E+09,9E+09]];
    CONST robtarget Target_775_3:=[[-155.575,100.779,-17],[0.707106781,0,0,-0.707106781],[1,0,-1,0],[9E+09,9E+09,9E+09,9E+09,9E+09,9E+09]];
    CONST robtarget Target_780_2:=[[-160.939,93.288,13],[0.707106781,0,0,-0.707106781],[-1,-1,1,0],[9E+09,9E+09,9E+09,9E+09,9E+09,9E+09]];
    CONST robtarget Target_785_2:=[[-155.575,85.779,13],[0.707106781,0,0,-0.707106781],[0,0,0,0],[9E+09,9E+09,9E+09,9E+09,9E+09,9E+09]];
    CONST robtarget Target_790_2:=[[-150.939,93.288,13],[0.707106781,0,0,-0.707106781],[-1,-1,1,0],[9E+09,9E+09,9E+09,9E+09,9E+09,9E+09]];
    CONST robtarget Target_815_2:=[[-129.066,94.53,-17],[0.707106781,0,0,-0.707106781],[0,0,0,0],[9E+09,9E+09,9E+09,9E+09,9E+09,9E+09]];
    CONST robtarget Target_820_2:=[[-129.066,94.53,13],[0.707106781,0,0,-0.707106781],[0,0,0,0],[9E+09,9E+09,9E+09,9E+09,9E+09,9E+09]];
    CONST robtarget Target_830_2:=[[-127.903,82.685,13],[0.707106781,0,0,-0.707106781],[0,0,0,0],[9E+09,9E+09,9E+09,9E+09,9E+09,9E+09]];
    CONST robtarget Target_840_2:=[[-135.975,70.659,13],[0.707106781,0,0,-0.707106781],[0,0,0,0],[9E+09,9E+09,9E+09,9E+09,9E+09,9E+09]];
    CONST robtarget Target_850_2:=[[-155.575,63.779,13],[0.707106781,0,0,-0.707106781],[0,0,0,0],[9E+09,9E+09,9E+09,9E+09,9E+09,9E+09]];
    CONST robtarget Target_860_2:=[[-177.975,70.659,13],[0.707106781,0,0,-0.707106781],[0,0,0,0],[9E+09,9E+09,9E+09,9E+09,9E+09,9E+09]];
    CONST robtarget Target_870_2:=[[-184.903,82.685,13],[0.707106781,0,0,-0.707106781],[0,0,0,0],[9E+09,9E+09,9E+09,9E+09,9E+09,9E+09]];
    CONST robtarget Target_880_2:=[[-184.066,94.53,13],[0.707106781,0,0,-0.707106781],[0,0,0,0],[9E+09,9E+09,9E+09,9E+09,9E+09,9E+09]];
    CONST robtarget Target_890_2:=[[-184.066,94.53,-17],[0.707106781,0,0,-0.707106781],[0,0,0,0],[9E+09,9E+09,9E+09,9E+09,9E+09,9E+09]];
    CONST robtarget Target_895_2:=[[-179.038,114.326,-17],[0.707106781,0,0,-0.707106781],[0,0,0,0],[9E+09,9E+09,9E+09,9E+09,9E+09,9E+09]];
    CONST robtarget Target_900_2:=[[-179.038,114.326,13],[0.707106781,0,0,-0.707106781],[0,0,0,0],[9E+09,9E+09,9E+09,9E+09,9E+09,9E+09]];
    CONST robtarget Target_910_2:=[[-182.864,120.744,13],[0.707106781,0,0,-0.707106781],[0,0,0,0],[9E+09,9E+09,9E+09,9E+09,9E+09,9E+09]];
    CONST robtarget Target_920_2:=[[-181.058,129.042,13],[0.707106781,0,0,-0.707106781],[0,0,0,0],[9E+09,9E+09,9E+09,9E+09,9E+09,9E+09]];
    CONST robtarget Target_930_2:=[[-168.478,122.407,13],[0.707106781,0,0,-0.707106781],[0,0,0,0],[9E+09,9E+09,9E+09,9E+09,9E+09,9E+09]];
    CONST robtarget Target_940_2:=[[-155.852,126.028,13],[0.707106781,0,0,-0.707106781],[0,0,0,0],[9E+09,9E+09,9E+09,9E+09,9E+09,9E+09]];
    CONST robtarget Target_950_2:=[[-143.478,122.407,13],[0.707106781,0,0,-0.707106781],[0,0,0,0],[9E+09,9E+09,9E+09,9E+09,9E+09,9E+09]];
    CONST robtarget Target_960_2:=[[-132.058,129.042,13],[0.707106781,0,0,-0.707106781],[0,0,0,0],[9E+09,9E+09,9E+09,9E+09,9E+09,9E+09]];
    CONST robtarget Target_970_2:=[[-129.864,120.744,13],[0.707106781,0,0,-0.707106781],[0,0,0,0],[9E+09,9E+09,9E+09,9E+09,9E+09,9E+09]];
    CONST robtarget Target_980_2:=[[-132.038,114.326,13],[0.707106781,0,0,-0.707106781],[0,0,0,0],[9E+09,9E+09,9E+09,9E+09,9E+09,9E+09]];
    CONST robtarget Target_990_2:=[[-132.038,114.326,-17],[0.707106781,0,0,-0.707106781],[0,0,0,0],[9E+09,9E+09,9E+09,9E+09,9E+09,9E+09]];
    CONST robtarget Target_1000_2:=[[44.552806485,64.298652129,-213.469824522],[0.757421454,0.045354204,0.033577746,-0.650483106],[1,-1,0,0],[9E+09,9E+09,9E+09,9E+09,9E+09,9E+09]];
    CONST robtarget Target_1010:=[[-142.102348339,-500.732180922,-239.942003824],[0.998773216,0.028144667,-0.003035794,-0.040629113],[0,0,-1,0],[9E+09,9E+09,9E+09,9E+09,9E+09,9E+09]];

    PROC main()
    WHILE TRUE DO
        IF DI_01 = 1 THEN
		        Reset DO_02;
            Set DO_01;
            Set FWD_Conveyor;
            Reset BWD_Conveyor;
            WaitTime 2;
            Reset FWD_Conveyor;
            Reset BWD_Conveyor;
            WaitTime 2;
            Set FWD_Conveyor;
            Set BWD_Conveyor;
            WaitTime 2;
            Reset FWD_Conveyor;
            Reset BWD_Conveyor;
            Path_Home;
            E1;
            E2;
            D1;
            W1;
            A1;
            R1;
            D2;
            J1;
            U1;
            A2;
            N1;
            Eyes;
            Barba;
            Ear;
            noise;
            Home_noise;
            Path_Home;
            Set FWD_Conveyor;
            Set BWD_Conveyor;
            WaitTime 4;
            Reset FWD_Conveyor;
            Reset BWD_Conveyor;
            RESET DO_01;
        ENDIF
        
        IF DI_02 = 1 THEN
		        Reset DO_01;
		        Set DO_02;
		        Extarc_Path;
		    ENDIF
		    
    ENDWHILE
    ENDPROC
    
    PROC Path_Home()
         MoveJ Target_Home,v400,z1,LaPoderosa\WObj:=Workobject_2;
    ENDPROC
    PROC E1()
        MoveJ Target_1000,v400,z1,LaPoderosa\WObj:=Workobject_2;
        MoveJ Target_10,v200,z1,LaPoderosa\WObj:=Workobject_2;
        MoveJ Target_15,v200,z1,LaPoderosa\WObj:=Workobject_2;
        MoveJ Target_20,v200,z1,LaPoderosa\WObj:=Workobject_2;
        MoveJ Target_30,v200,z1,LaPoderosa\WObj:=Workobject_2;
        MoveJ Target_40,v200,z1,LaPoderosa\WObj:=Workobject_2;
        MoveJ Target_45,v200,z1,LaPoderosa\WObj:=Workobject_2;
    ENDPROC
    PROC E2()
        MoveJ Target_50,v200,z1,LaPoderosa\WObj:=Workobject_2;
        MoveJ Target_55,v200,z1,LaPoderosa\WObj:=Workobject_2;
        MoveJ Target_60,v200,z1,LaPoderosa\WObj:=Workobject_2;
        MoveJ Target_65,v200,z1,LaPoderosa\WObj:=Workobject_2;
    ENDPROC
    PROC D1()
        MoveJ Target_70,v200,z1,LaPoderosa\WObj:=Workobject_2;
        MoveJ Target_75,v200,z1,LaPoderosa\WObj:=Workobject_2;
        MoveJ Target_85,v200,z1,LaPoderosa\WObj:=Workobject_2;
        MoveJ Target_95,v200,z1,LaPoderosa\WObj:=Workobject_2;
        MoveJ Target_105,v200,z1,LaPoderosa\WObj:=Workobject_2;
        MoveJ Target_115,v200,z1,LaPoderosa\WObj:=Workobject_2;
        MoveJ Target_125,v200,z1,LaPoderosa\WObj:=Workobject_2;
        MoveJ Target_135,v200,z1,LaPoderosa\WObj:=Workobject_2;
        MoveJ Target_137,v200,z1,LaPoderosa\WObj:=Workobject_2;
        MoveJ Target_140,v200,z1,LaPoderosa\WObj:=Workobject_2;
    ENDPROC
    PROC W1()
        MoveJ Target_145,v200,z1,LaPoderosa\WObj:=Workobject_2;
        MoveJ Target_150,v200,z1,LaPoderosa\WObj:=Workobject_2;
        MoveJ Target_160,v200,z1,LaPoderosa\WObj:=Workobject_2;
        MoveJ Target_170,v200,z1,LaPoderosa\WObj:=Workobject_2;
        MoveJ Target_180,v200,z1,LaPoderosa\WObj:=Workobject_2;
        MoveJ Target_190,v200,z1,LaPoderosa\WObj:=Workobject_2;
        MoveJ Target_195,v200,z1,LaPoderosa\WObj:=Workobject_2;
    ENDPROC
    PROC A1()
        MoveJ Target_200,v200,z1,LaPoderosa\WObj:=Workobject_2;
        MoveJ Target_205,v200,z1,LaPoderosa\WObj:=Workobject_2;
        MoveJ Target_215,v200,z1,LaPoderosa\WObj:=Workobject_2;
        MoveJ Target_225,v200,z1,LaPoderosa\WObj:=Workobject_2;
        MoveJ Target_230,v200,z1,LaPoderosa\WObj:=Workobject_2;
        MoveJ Target_233,v200,z1,LaPoderosa\WObj:=Workobject_2;
        MoveJ Target_235,v200,z1,LaPoderosa\WObj:=Workobject_2;
        MoveJ Target_245,v200,z1,LaPoderosa\WObj:=Workobject_2;
        MoveJ Target_250,v200,z1,LaPoderosa\WObj:=Workobject_2;
    ENDPROC
    PROC R1()
        MoveL Target_255,v200,z1,LaPoderosa\WObj:=Workobject_2;
        MoveL Target_260,v200,z1,LaPoderosa\WObj:=Workobject_2;
        MoveL Target_270,v200,z1,LaPoderosa\WObj:=Workobject_2;
        MoveL Target_280,v200,z1,LaPoderosa\WObj:=Workobject_2;
        MoveL Target_290,v200,z1,LaPoderosa\WObj:=Workobject_2;
        MoveL Target_300,v200,z1,LaPoderosa\WObj:=Workobject_2;
        MoveL Target_310,v200,z1,LaPoderosa\WObj:=Workobject_2;
        MoveL Target_312,v200,z1,LaPoderosa\WObj:=Workobject_2;
        MoveL Target_315,v200,z1,LaPoderosa\WObj:=Workobject_2;
        MoveL Target_320,v200,z1,LaPoderosa\WObj:=Workobject_2;
        MoveL Target_330,v200,z1,LaPoderosa\WObj:=Workobject_2;
        MoveL Target_340,v200,z1,LaPoderosa\WObj:=Workobject_2;
    ENDPROC
    PROC D2()
        MoveL Target_350,v200,z1,LaPoderosa\WObj:=Workobject_2;
        MoveL Target_360,v200,z1,LaPoderosa\WObj:=Workobject_2;
        MoveL Target_370,v200,z1,LaPoderosa\WObj:=Workobject_2;
        MoveL Target_380,v200,z1,LaPoderosa\WObj:=Workobject_2;
        MoveL Target_390,v200,z1,LaPoderosa\WObj:=Workobject_2;
        MoveL Target_400,v200,z1,LaPoderosa\WObj:=Workobject_2;
        MoveL Target_410,v200,z1,LaPoderosa\WObj:=Workobject_2;
        MoveL Target_420,v200,z1,LaPoderosa\WObj:=Workobject_2;
        MoveL Target_430,v200,z1,LaPoderosa\WObj:=Workobject_2;
        MoveL Target_450,v200,z1,LaPoderosa\WObj:=Workobject_2;
    ENDPROC
    PROC J1()
        MoveL Target_455,v200,z1,LaPoderosa\WObj:=Workobject_2;
        MoveL Target_460,v200,z1,LaPoderosa\WObj:=Workobject_2;
        MoveL Target_470,v200,z1,LaPoderosa\WObj:=Workobject_2;
        MoveL Target_480,v200,z1,LaPoderosa\WObj:=Workobject_2;
        MoveL Target_490,v200,z1,LaPoderosa\WObj:=Workobject_2;
        MoveL Target_495,v200,z1,LaPoderosa\WObj:=Workobject_2;
    ENDPROC
    PROC U1()
        MoveL Target_500,v200,z1,LaPoderosa\WObj:=Workobject_2;
        MoveL Target_505,v200,z1,LaPoderosa\WObj:=Workobject_2;
        MoveL Target_515,v200,z1,LaPoderosa\WObj:=Workobject_2;
        MoveL Target_525,v200,z1,LaPoderosa\WObj:=Workobject_2;
        MoveL Target_535,v200,z1,LaPoderosa\WObj:=Workobject_2;
        MoveL Target_545,v200,z1,LaPoderosa\WObj:=Workobject_2;
        MoveL Target_555,v200,z1,LaPoderosa\WObj:=Workobject_2;
        MoveL Target_565,v200,z1,LaPoderosa\WObj:=Workobject_2;
        MoveL Target_570,v200,z1,LaPoderosa\WObj:=Workobject_2;
    ENDPROC
    PROC A2()
        MoveL Target_575,v200,z1,LaPoderosa\WObj:=Workobject_2;
        MoveL Target_580,v200,z1,LaPoderosa\WObj:=Workobject_2;
        MoveL Target_590,v200,z1,LaPoderosa\WObj:=Workobject_2;
        MoveL Target_600,v200,z1,LaPoderosa\WObj:=Workobject_2;
        MoveL Target_605,v200,z1,LaPoderosa\WObj:=Workobject_2;
        MoveL Target_607,v200,z1,LaPoderosa\WObj:=Workobject_2;
        MoveL Target_610,v200,z1,LaPoderosa\WObj:=Workobject_2;
        MoveL Target_620,v200,z1,LaPoderosa\WObj:=Workobject_2;
        MoveL Target_625,v200,z1,LaPoderosa\WObj:=Workobject_2;
    ENDPROC
    PROC N1()
        MoveL Target_630,v200,z1,LaPoderosa\WObj:=Workobject_2;
        MoveL Target_635,v200,z1,LaPoderosa\WObj:=Workobject_2;
        MoveL Target_645,v200,z1,LaPoderosa\WObj:=Workobject_2;
        MoveL Target_655,v200,z1,LaPoderosa\WObj:=Workobject_2;
        MoveL Target_665,v200,z1,LaPoderosa\WObj:=Workobject_2;
        MoveL Target_670,v200,z1,LaPoderosa\WObj:=Workobject_2;
    ENDPROC
    PROC Eyes()
        MoveL Target_675,v200,z1,LaPoderosa\WObj:=Workobject_2;
        MoveL Target_680,v200,z1,LaPoderosa\WObj:=Workobject_2;
        MoveC Target_690,Target_700,v200,z1,LaPoderosa\WObj:=Workobject_2;
        MoveC Target_710,Target_720,v200,z1,LaPoderosa\WObj:=Workobject_2;
        MoveC Target_723,Target_725,v200,z1,LaPoderosa\WObj:=Workobject_2;
        MoveC Target_727,Target_740,v200,z1,LaPoderosa\WObj:=Workobject_2;
        MoveC Target_750,Target_760,v200,z1,LaPoderosa\WObj:=Workobject_2;
        MoveC Target_765,Target_770,v200,z1,LaPoderosa\WObj:=Workobject_2;
        MoveL Target_775,v200,z1,LaPoderosa\WObj:=Workobject_2;
    ENDPROC
    PROC noise()
        MoveL Target_775_2,v200,z1,LaPoderosa\WObj:=Workobject_2;
        MoveL Target_770,v200,z1,LaPoderosa\WObj:=Workobject_2;
        MoveC Target_780,Target_785,v200,z1,LaPoderosa\WObj:=Workobject_2;
        MoveC Target_790,Target_800,v200,z1,LaPoderosa\WObj:=Workobject_2;
    ENDPROC
    PROC Barba()
        MoveL Target_815,v200,z1,LaPoderosa\WObj:=Workobject_2;
        MoveL Target_820,v200,z1,LaPoderosa\WObj:=Workobject_2;
        MoveC Target_830,Target_840,v200,z1,LaPoderosa\WObj:=Workobject_2;
        MoveC Target_850,Target_860,v200,z1,LaPoderosa\WObj:=Workobject_2;
        MoveC Target_870,Target_880,v200,z1,LaPoderosa\WObj:=Workobject_2;
        MoveL Target_890,v200,z1,LaPoderosa\WObj:=Workobject_2;
    ENDPROC
    PROC Ear()
        MoveL Target_895,v200,z1,LaPoderosa\WObj:=Workobject_2;
        MoveL Target_900,v200,z1,LaPoderosa\WObj:=Workobject_2;
        MoveC Target_910,Target_920,v200,z1,LaPoderosa\WObj:=Workobject_2;
        MoveL Target_930,v200,z1,LaPoderosa\WObj:=Workobject_2;
        MoveC Target_940,Target_950,v200,z1,LaPoderosa\WObj:=Workobject_2;
        MoveL Target_960,v200,z1,LaPoderosa\WObj:=Workobject_2;
        MoveC Target_970,Target_980,v200,z1,LaPoderosa\WObj:=Workobject_2;
        MoveL Target_990,v200,z1,LaPoderosa\WObj:=Workobject_2;
    ENDPROC
    PROC Home_noise()
        MoveL Target_775_2_2,v200,z1,LaPoderosa\WObj:=Workobject_2;
        MoveL Target_1000,v200,z1,LaPoderosa\WObj:=Workobject_2;
    ENDPROC
    PROC Extarc_Path()
        MoveJ Extrac,v200,z1,LaPoderosa_virtual\WObj:=Workobject_2;
    ENDPROC
    PROC Juan()
        MoveL Target_455_2,v200,z1,LaPoderosa_virtual\WObj:=Workobject_2;
        MoveL Target_460_2,v200,z1,LaPoderosa_virtual\WObj:=Workobject_2;
        MoveL Target_470_2,v200,z1,LaPoderosa_virtual\WObj:=Workobject_2;
        MoveL Target_480_2,v200,z1,LaPoderosa_virtual\WObj:=Workobject_2;
        MoveL Target_490_2,v200,z1,LaPoderosa_virtual\WObj:=Workobject_2;
        MoveL Target_495_2,v200,z1,LaPoderosa_virtual\WObj:=Workobject_2;
        MoveL Target_500_2,v200,z1,LaPoderosa_virtual\WObj:=Workobject_2;
        MoveL Target_505_2,v200,z1,LaPoderosa_virtual\WObj:=Workobject_2;
        MoveL Target_515_2,v200,z1,LaPoderosa_virtual\WObj:=Workobject_2;
        MoveL Target_525_2,v200,z1,LaPoderosa_virtual\WObj:=Workobject_2;
        MoveL Target_535_2,v200,z1,LaPoderosa_virtual\WObj:=Workobject_2;
        MoveL Target_545_2,v200,z1,LaPoderosa_virtual\WObj:=Workobject_2;
        MoveL Target_555_2,v200,z1,LaPoderosa_virtual\WObj:=Workobject_2;
        MoveL Target_565_2,v200,z1,LaPoderosa_virtual\WObj:=Workobject_2;
        MoveL Target_570_2,v200,z1,LaPoderosa_virtual\WObj:=Workobject_2;
        MoveL Target_575_2,v200,z1,LaPoderosa_virtual\WObj:=Workobject_2;
        MoveL Target_580_2,v200,z1,LaPoderosa_virtual\WObj:=Workobject_2;
        MoveL Target_590_2,v200,z1,LaPoderosa_virtual\WObj:=Workobject_2;
        MoveL Target_600_2,v200,z1,LaPoderosa_virtual\WObj:=Workobject_2;
        MoveL Target_605_2,v200,z1,LaPoderosa_virtual\WObj:=Workobject_2;
        MoveL Target_607_2,v200,z1,LaPoderosa_virtual\WObj:=Workobject_2;
        MoveL Target_610_2,v200,z1,LaPoderosa_virtual\WObj:=Workobject_2;
        MoveL Target_620_2,v200,z1,LaPoderosa_virtual\WObj:=Workobject_2;
        MoveL Target_625_2,v200,z1,LaPoderosa_virtual\WObj:=Workobject_2;
        MoveL Target_630_2,v200,z1,LaPoderosa_virtual\WObj:=Workobject_2;
        MoveL Target_635_2,v200,z1,LaPoderosa_virtual\WObj:=Workobject_2;
        MoveL Target_645_2,v200,z1,LaPoderosa_virtual\WObj:=Workobject_2;
        MoveL Target_655_2,v200,z1,LaPoderosa_virtual\WObj:=Workobject_2;
        MoveL Target_665_2,v200,z1,LaPoderosa_virtual\WObj:=Workobject_2;
        MoveL Target_670_2,v200,z1,LaPoderosa_virtual\WObj:=Workobject_2;
    ENDPROC
    PROC Edward()
        MoveL Target_1010,v200,z1,LaPoderosa_virtual\WObj:=Workobject_2;
        MoveJ Target_1000_2,v200,z1,LaPoderosa_virtual\WObj:=Workobject_2;
        MoveJ Target_10_2,v200,z1,LaPoderosa_virtual\WObj:=Workobject_2;
        MoveJ Target_15_2,v200,z1,LaPoderosa_virtual\WObj:=Workobject_2;
        MoveJ Target_20_2,v200,z1,LaPoderosa_virtual\WObj:=Workobject_2;
        MoveJ Target_30_2,v200,z1,LaPoderosa_virtual\WObj:=Workobject_2;
        MoveJ Target_40_2,v200,z1,LaPoderosa_virtual\WObj:=Workobject_2;
        MoveJ Target_45_2,v200,z1,LaPoderosa_virtual\WObj:=Workobject_2;
        MoveJ Target_50_2,v200,z1,LaPoderosa_virtual\WObj:=Workobject_2;
        MoveJ Target_55_2,v200,z1,LaPoderosa_virtual\WObj:=Workobject_2;
        MoveJ Target_60_2,v200,z1,LaPoderosa_virtual\WObj:=Workobject_2;
        MoveJ Target_65_2,v200,z1,LaPoderosa_virtual\WObj:=Workobject_2;
        MoveJ Target_70_2,v200,z1,LaPoderosa_virtual\WObj:=Workobject_2;
        MoveJ Target_75_2,v200,z1,LaPoderosa_virtual\WObj:=Workobject_2;
        MoveJ Target_85_2,v200,z1,LaPoderosa_virtual\WObj:=Workobject_2;
        MoveJ Target_95_2,v200,z1,LaPoderosa_virtual\WObj:=Workobject_2;
        MoveJ Target_105_2,v200,z1,LaPoderosa_virtual\WObj:=Workobject_2;
        MoveJ Target_115_2,v200,z1,LaPoderosa_virtual\WObj:=Workobject_2;
        MoveJ Target_125_2,v200,z1,LaPoderosa_virtual\WObj:=Workobject_2;
        MoveJ Target_135_2,v200,z1,LaPoderosa_virtual\WObj:=Workobject_2;
        MoveJ Target_137_2,v200,z1,LaPoderosa_virtual\WObj:=Workobject_2;
        MoveJ Target_140_2,v200,z1,LaPoderosa_virtual\WObj:=Workobject_2;
        MoveJ Target_145_2,v200,z1,LaPoderosa_virtual\WObj:=Workobject_2;
        MoveJ Target_150_2,v200,z1,LaPoderosa_virtual\WObj:=Workobject_2;
        MoveJ Target_160_2,v200,z1,LaPoderosa_virtual\WObj:=Workobject_2;
        MoveJ Target_170_2,v200,z1,LaPoderosa_virtual\WObj:=Workobject_2;
        MoveJ Target_180_2,v200,z1,LaPoderosa_virtual\WObj:=Workobject_2;
        MoveJ Target_190_2,v200,z1,LaPoderosa_virtual\WObj:=Workobject_2;
        MoveJ Target_195_2,v200,z1,LaPoderosa_virtual\WObj:=Workobject_2;
        MoveJ Target_200_2,v200,z1,LaPoderosa_virtual\WObj:=Workobject_2;
        MoveJ Target_205_2,v200,z1,LaPoderosa_virtual\WObj:=Workobject_2;
        MoveJ Target_215_2,v200,z1,LaPoderosa_virtual\WObj:=Workobject_2;
        MoveJ Target_225_2,v200,z1,LaPoderosa_virtual\WObj:=Workobject_2;
        MoveJ Target_230_2,v200,z1,LaPoderosa_virtual\WObj:=Workobject_2;
        MoveJ Target_233_2,v200,z1,LaPoderosa_virtual\WObj:=Workobject_2;
        MoveJ Target_235_2,v200,z1,LaPoderosa_virtual\WObj:=Workobject_2;
        MoveJ Target_245_2,v200,z1,LaPoderosa_virtual\WObj:=Workobject_2;
        MoveJ Target_250_2,v200,z1,LaPoderosa_virtual\WObj:=Workobject_2;
        MoveJ Target_255_2,v200,z1,LaPoderosa_virtual\WObj:=Workobject_2;
        MoveJ Target_260_2,v200,z1,LaPoderosa_virtual\WObj:=Workobject_2;
        MoveJ Target_270_2,v200,z1,LaPoderosa_virtual\WObj:=Workobject_2;
        MoveJ Target_280_2,v200,z1,LaPoderosa_virtual\WObj:=Workobject_2;
        MoveJ Target_290_2,v200,z1,LaPoderosa_virtual\WObj:=Workobject_2;
        MoveJ Target_300_2,v200,z1,LaPoderosa_virtual\WObj:=Workobject_2;
        MoveJ Target_310_2,v200,z1,LaPoderosa_virtual\WObj:=Workobject_2;
        MoveJ Target_312_2,v200,z1,LaPoderosa_virtual\WObj:=Workobject_2;
        MoveJ Target_315_2,v200,z1,LaPoderosa_virtual\WObj:=Workobject_2;
        MoveJ Target_320_2,v200,z1,LaPoderosa_virtual\WObj:=Workobject_2;
        MoveJ Target_330_2,v200,z1,LaPoderosa_virtual\WObj:=Workobject_2;
        MoveJ Target_340_2,v200,z1,LaPoderosa_virtual\WObj:=Workobject_2;
        MoveJ Target_350_2,v200,z1,LaPoderosa_virtual\WObj:=Workobject_2;
        MoveJ Target_360_2,v200,z1,LaPoderosa_virtual\WObj:=Workobject_2;
        MoveJ Target_370_2,v200,z1,LaPoderosa_virtual\WObj:=Workobject_2;
        MoveJ Target_380_2,v200,z1,LaPoderosa_virtual\WObj:=Workobject_2;
        MoveJ Target_390_2,v200,z1,LaPoderosa_virtual\WObj:=Workobject_2;
        MoveJ Target_400_2,v200,z1,LaPoderosa_virtual\WObj:=Workobject_2;
        MoveJ Target_410_2,v200,z1,LaPoderosa_virtual\WObj:=Workobject_2;
        MoveJ Target_420_2,v200,z1,LaPoderosa_virtual\WObj:=Workobject_2;
        MoveJ Target_430_2,v200,z1,LaPoderosa_virtual\WObj:=Workobject_2;
        MoveJ Target_450_2,v200,z1,LaPoderosa_virtual\WObj:=Workobject_2;
    ENDPROC
    PROC Buho()
        MoveJ Target_675_2,v200,z1,LaPoderosa_virtual\WObj:=Workobject_2;
        MoveJ Target_680_2,v200,z1,LaPoderosa_virtual\WObj:=Workobject_2;
        MoveC Target_690_2,Target_700_2,v200,z1,LaPoderosa\WObj:=Workobject_2;
        MoveC Target_710_2,Target_720_2,v200,z1,LaPoderosa\WObj:=Workobject_2;
        MoveC Target_723_2,Target_725_2,v200,z1,LaPoderosa\WObj:=Workobject_2;
        MoveC Target_727_2,Target_740_2,v200,z1,LaPoderosa\WObj:=Workobject_2;
        MoveC Target_750_2,Target_760_2,v200,z1,LaPoderosa\WObj:=Workobject_2;
        MoveC Target_765_2,Target_770_2,v200,z1,LaPoderosa\WObj:=Workobject_2;
        MoveJ Target_775_3,v200,z1,LaPoderosa_virtual\WObj:=Workobject_2;
        MoveL Target_815_2,v200,z1,LaPoderosa\WObj:=Workobject_2;
        MoveL Target_820_2,v200,z1,LaPoderosa\WObj:=Workobject_2;
        MoveC Target_830_2,Target_840_2,v200,z1,LaPoderosa\WObj:=Workobject_2;
        MoveC Target_850_2,Target_860_2,v200,z1,LaPoderosa\WObj:=Workobject_2;
        MoveC Target_870_2,Target_880_2,v200,z1,LaPoderosa\WObj:=Workobject_2;
        MoveL Target_890_2,v200,z1,LaPoderosa\WObj:=Workobject_2;
        MoveL Target_895_2,v200,z1,LaPoderosa\WObj:=Workobject_2;
        MoveL Target_900_2,v200,z1,LaPoderosa\WObj:=Workobject_2;
        MoveC Target_910_2,Target_920_2,v200,z1,LaPoderosa\WObj:=Workobject_2;
        MoveL Target_930_2,v200,z1,LaPoderosa\WObj:=Workobject_2;
        MoveC Target_940_2,Target_950_2,v200,z1,LaPoderosa\WObj:=Workobject_2;
        MoveL Target_960_2,v200,z1,LaPoderosa\WObj:=Workobject_2;
        MoveC Target_970_2,Target_980_2,v200,z1,LaPoderosa\WObj:=Workobject_2;
        MoveL Target_990_2,v200,z1,LaPoderosa\WObj:=Workobject_2;
        MoveL Target_775_2_2_2,v200,z1,LaPoderosa_virtual\WObj:=Workobject_2;        
        MoveL Target_770_2,v200,z1,LaPoderosa\WObj:=Workobject_2;
        MoveC Target_780_2,Target_785_2,v200,z1,LaPoderosa\WObj:=Workobject_2;
        MoveC Target_790_2,Target_800_2,v200,z1,LaPoderosa\WObj:=Workobject_2;
        MoveL Target_775_2_2_2,v200,z1,LaPoderosa\WObj:=Workobject_2;
        MoveL Target_1000_2,v200,z1,LaPoderosa\WObj:=Workobject_2;
        
    ENDPROC
    PROC Path_10()
        MoveL Target_455_2,v200,z1,LaPoderosa_virtual\WObj:=Workobject_2;
        MoveL Target_460_2,v200,z1,LaPoderosa_virtual\WObj:=Workobject_2;
        MoveL Target_470_2,v200,z1,LaPoderosa_virtual\WObj:=Workobject_2;
        MoveL Target_480_2,v200,z1,LaPoderosa_virtual\WObj:=Workobject_2;
        MoveL Target_490_2,v200,z1,LaPoderosa_virtual\WObj:=Workobject_2;
        MoveL Target_495_2,v200,z1,LaPoderosa_virtual\WObj:=Workobject_2;
        MoveL Target_500_2,v200,z1,LaPoderosa_virtual\WObj:=Workobject_2;
        MoveL Target_505_2,v200,z1,LaPoderosa_virtual\WObj:=Workobject_2;
        MoveL Target_515_2,v200,z1,LaPoderosa_virtual\WObj:=Workobject_2;
        MoveL Target_525_2,v200,z1,LaPoderosa_virtual\WObj:=Workobject_2;
        MoveL Target_535_2,v200,z1,LaPoderosa_virtual\WObj:=Workobject_2;
        MoveL Target_545_2,v200,z1,LaPoderosa_virtual\WObj:=Workobject_2;
        MoveL Target_555_2,v200,z1,LaPoderosa_virtual\WObj:=Workobject_2;
        MoveL Target_565_2,v200,z1,LaPoderosa_virtual\WObj:=Workobject_2;
        MoveL Target_570_2,v200,z1,LaPoderosa_virtual\WObj:=Workobject_2;
        MoveL Target_575_2,v200,z1,LaPoderosa_virtual\WObj:=Workobject_2;
        MoveL Target_580_2,v200,z1,LaPoderosa_virtual\WObj:=Workobject_2;
        MoveL Target_590_2,v200,z1,LaPoderosa_virtual\WObj:=Workobject_2;
        MoveL Target_600_2,v200,z1,LaPoderosa_virtual\WObj:=Workobject_2;
        MoveL Target_605_2,v200,z1,LaPoderosa_virtual\WObj:=Workobject_2;
        MoveL Target_607_2,v200,z1,LaPoderosa_virtual\WObj:=Workobject_2;
        MoveL Target_610_2,v200,z1,LaPoderosa_virtual\WObj:=Workobject_2;
        MoveL Target_620_2,v200,z1,LaPoderosa_virtual\WObj:=Workobject_2;
        MoveL Target_625_2,v200,z1,LaPoderosa_virtual\WObj:=Workobject_2;
        MoveL Target_630_2,v200,z1,LaPoderosa_virtual\WObj:=Workobject_2;
        MoveL Target_635_2,v200,z1,LaPoderosa_virtual\WObj:=Workobject_2;
        MoveL Target_645_2,v200,z1,LaPoderosa_virtual\WObj:=Workobject_2;
        MoveL Target_655_2,v200,z1,LaPoderosa_virtual\WObj:=Workobject_2;
        MoveL Target_665_2,v200,z1,LaPoderosa_virtual\WObj:=Workobject_2;
        MoveL Target_670_2,v200,z1,LaPoderosa_virtual\WObj:=Workobject_2;
    ENDPROC
ENDMODULE
